gama.ui.shared/icons_svg/light/overlays/small.change.svg

<svg height="16" viewBox="-912 -3549.756 16 16" width="16" xmlns="http://www.w3.org/2000/svg"><g fill="none"><path d="m-901.1619-3543.029h-5.7776v-2.171l-4.0819 3.444 4.0819 3.4442v-2.1712h5.7776v2.1712l4.0819-3.4442-4.0819-3.444z" fill="#fff"/><path d="m-901.1619-3543.029h-5.7776v-2.171l-4.0819 3.444 4.0819 3.4442v-2.1712h5.7776v2.1712l4.0819-3.4442-4.0819-3.444z" stroke="#000" stroke-linecap="round" stroke-linejoin="round" stroke-width=".5"/></g></svg>

<?xml version="1.0" encoding="UTF-8" standalone="no"?>
<!DOCTYPE svg PUBLIC "-//W3C//DTD SVG 1.1//EN" "http://www.w3.org/Graphics/SVG/1.1/DTD/svg11.dtd">
<svg version="1.1" xmlns="http://www.w3.org/2000/svg" xmlns:xl="http://www.w3.org/1999/xlink" xmlns:dc="http://purl.org/dc/elements/1.1/" viewBox="-912.0001 -3549.756 16.000008 16.000008" width="16.000008" height="16.000008">
  <defs/>
  <g id="SOURCES" stroke-dasharray="none" fill="none" stroke="none" fill-opacity="1" stroke-opacity="1">
    <title>SOURCES</title>
    <g id="SOURCES_Calque_2">
      <title>Calque 2</title>
      <g id="Group_9490">
        <g id="Graphic_9487"/>
        <g id="Graphic_9489">
          <path d="M -901.1619 -3543.029 L -906.9395 -3543.029 L -906.9395 -3545.2 L -911.0214 -3541.756 L -906.9395 -3538.3118 L -906.9395 -3540.483 L -901.1619 -3540.483 L -901.1619 -3538.3118 L -897.08 -3541.756 L -901.1619 -3545.2 Z" fill="white"/>
          <path d="M -901.1619 -3543.029 L -906.9395 -3543.029 L -906.9395 -3545.2 L -911.0214 -3541.756 L -906.9395 -3538.3118 L -906.9395 -3540.483 L -901.1619 -3540.483 L -901.1619 -3538.3118 L -897.08 -3541.756 L -901.1619 -3545.2 Z" stroke="black" stroke-linecap="round" stroke-linejoin="round" stroke-width=".5"/>
        </g>
      </g>
    </g>
  </g>
</svg>
